X:1
T:Title
%%score ( 1 2 ) { 3 | 4 }
L:1/8
Q:1/4=98
M:3/4
K:E
V:1 treble nm="Grand Piano, Soprano"
V:2 treble 
V:3 bass nm="Choir Pad, Banner of the Cross (Bangs)"
V:4 bass 
V:1
 B,[B,E] [EG] [EB]3- | [EB] [=DB]2 [^DB]2 [DB] | B,[B,D] [DF] [DB]3- | [DB] [Dc]2 [EB]3 | %4
w: By~Charles~Hutchinson~Gabriel * * *||||
 E[EG] [GB] [Ge]3- | [Ge] [Ge]2 [Ae]2 [Ad] | [Ac][Ad] [Ae] [Ae]3- | [Ae] [Ac]2 [GB]3 | %8
w: ||||
 B,[B,E] [EG] [EB]3- | [EB] [=DB]2 [^DB]2 [DB] | B,[B,D] [DF] [DB]3- | [DB] [Dc]2 [EG]3 | %12
w: ||||
 E[EG] [GB] [Ee]3- | [Ee] [=Ge]2 [^Ge]2 [EG] | [EG][EG] [EG] [EF]3- | [EF] [Ec]2 [DB]3 | %16
w: ||||
 BB [AB] [Ge]3- | [Ge] [Ee]2 [Ae]2 [Ad] | [DA][DA] [DA] [Ad]3- | [Ad] [Ac]2 c2 B | EE E [EB]3- | %21
w: |||||
 [EB] [=DB]2 [^DB]- [DB]/[B,D]/[B,D] | B,[B,D] [DF] [Dc]3- | [Dc] [Dc]2 [EG]3 | BB [AB] [Ge]3- | %25
w: ||||
 [Ge] [Ee]2 [Ae]2 [Ad] | [DA][DA] [DA] [Ad]3- | [Ad] [Ac]2 c2 B | EE E [^EB]3- | %29
w: ||||
 [EB] [^Ec]2 [GB]- [GB]/[FA]/[FA] | [E^A][EB] [Ec] [=Ad]3- | [Ad] [AB]2 [Ge]3- | [Ge]4 z2 |] %33
w: ||||
V:2
 x6 | x6 | x6 | x6 | x6 | x6 | x6 | x6 | x6 | x6 | x6 | x6 | x6 | x6 | x6 | x6 | x6 | x6 | x6 | %19
 z2 z G3 | x6 | x6 | x6 | x6 | x6 | x6 | x6 | z2 z G3 | x6 | x6 | x6 | x6 | x6 |] %33
V:3
 G,G, B, G,3- | G, G,2 A,2 A, | A,A, A, A,3- | A, A,2 G,3 | G,B, E B,3- | B, B,2 B,2 B, | %6
 B,B, B, B,2[K:treble] C- | C D2 E3 | G,[K:bass]G, B, G,3- | G, G,2 A,2 A, | A,A, A, A,3- | %11
 A, A,2 B,3 | G,B, B, A,3- | A, ^A,2 B,2 B, | B,B, B, ^A,3- | A, [F,^A,]2 B,3 | B,B, B, B,3- | %17
 B, B,2 B,2 B, | B,B, B, B,2[K:treble] C- | C D2 E3 | G,[K:bass]G, G, G,3- | G, G,2 A,- A,/A,/A, | %22
 A,A, A, A,3- | A, A,2 B,3 | B,B, B, B,3- | B, B,2 B,2 B, | B,B, B, B,2[K:treble] C- | C D2 E3 | %28
 G,[K:bass]G, G, G,2 C- | C[K:treble] C2 C- C/C/C | C[K:bass]B, B, B,3- | B, B,2 B,3- | B,4 z2 |] %33
V:4
 E,E, E, E,3- | E, ^E,2 F,2 F, | F,F, F, B,,3- | B,, B,,2 E,3 | E,E, E, E,3- | E, E,2 F,2 F, | %6
 F,F, F, B,,3- | B,, B,,2 G,3 | E,E, E, E,3- | E, ^E,2 F,2 F, | F,F, F, B,,3- | B,, B,,2 E,3 | %12
 E,E, =D, C,3- | C, ^B,,2 =B,,2 B,, | B,,B,, B,, C,2 F,,- | F,, F,,2 B,,3 | z2 z E,3- | %17
 E,G, =G, F,2 F, | F,F, F, B,,3- | B,, B,,2 E,3 | E,E, E, E,3- | E, ^E,2 F,- F,/F,/F, | %22
 F,F, F, B,,3- | B,, B,,2 E,3 | z2 z E,3- | E,G, =G, F,2 F, | F,F, F, B,,3- | B,, B,,2 E,3 | %28
 E,E, E, C,3- | C, C,2 F,- F,/F,/F, | =G,^G, =G, F,3- | F, z z E,3- | E,4 z2 |] %33

